X: 6016
T: Caoineadh An tSagairt
R: waltz
M: 3/4
K: Adorian
(B>{AB}A)|{F}(G>F)(E3F)|[M:2/4](G>A) B>^c|
(d{^d}P(e) ()e)e/4)(f/4e/4d/4)S|((BB/4)c/4B/4A/4) F{AB}A/F/|[M:3/4]|
[M:3/4]E(F/4E/4D/4B,/4) P{^C}D2 (B>{AB}A)|!mordent!{F}(G>F)(E3F)|[M:2/4]|
[M:2/4]G>A) B>^c|(d{^d}P(e ()e)e/4)(f/4e/4d/4)|
((BB/4)c/4B/4A/4) F{AB}A/F/|[M:3/4]E>EE2zG/A/|[M:2/4]B/B/ (g2f)|

